!!!OTL: 573. Der gute Kamerad.
!!!COM: Fr. Silcher
!!!ODT: 1825
!!!ARE: Europa, Mitteleuropa, Deutschland
!!!SCT: B0573
!!!TXL: @@DE
!!!YEM: Copyright 1995, estate of Helmut Schaffrath.
**kern	**text
*ICvox	*
*Ivox	*
*clefG2	*
*M4/4	*
*met(c)	*
*k[f#]	*
*G:	*
!LO:TX:a:t=Schrittmäßig.	!
{4d	Jch
=1	=1
4g	hatt'
[8b	ei-
8b]	-nen
4b	Ka-
4a	-me,
=2	=2
2g	ra-
4d}	-den,
{8g	ei-
8a	-nen
=3	=3
4b	beſ-
4dd	-ſern
4dd	find'ſt
4cc	du
=4	=4
2b	nit.
4r}	.
{4d	Jch
=5	=5
4g	hatt'
[8b	ei-
8b]	-nen
4b	Ka-
4a	-me,
=6	=6
2g	ra-
4d}	-den,
{8g	ei-
8a	-nen
=7	=7
4b	beſ-
4dd	-ſern
4dd	find'ſt
4cc	du
=8	=8
2b	nit.
4r}	.
{8gL	Die
8aJ	.
=9	=9
4b	Trommel
4b	.
4b	ſchlug
4a	ʒum
=10	=10
(4.b	Strei-
8cc)	.
4dd}	-te,
{8ccL	er
8bJ	.
=11	=11
4a	ging
4a	an
4a	mei-
8aL	-ner
8gJ	.
=12	=12
(4.a	Sei-
8b)	.
4cc}	-te
{4dd	in
=13	=13
4b	glei-
4b	-chem
4a	Schritt
4a	und
=14	=14
2g}	Tritt,
{2a^	in
=15	=15
4b	gleichem
4dd	.
4a	Schritt
8aL	und
8bJ	.
=16	=16
2g	Tritt.
4r}	.
{8gL	Die
8aJ	.
=17	=17
4b	Trommel
4b	.
4b	ſchlug
4a	ʒum
=18	=18
(4.b	Strei-
8cc)	.
4dd}	-te,
{8ccL	er
8bJ	.
=19	=19
4a	ging
4a	an
4a	mei-
8aL	-ner
8gJ	.
=20	=20
(4.a	Sei-
8b)	.
4cc}	-te
{4dd	in
=21	=21
4b	glei-
4b	-chem
4a	Schritt
4a	und
=22	=22
2g}	Tritt,
{2a^	in
=23	=23
4b	gleichem
4dd	.
4a	Schritt
8aL	und
8bJ	.
=24	=24
2g	Tritt.
4r}	.
==	==
!!!AGN: Staende -, Soldaten - Lied, Tod
!!!GTL: Soldatenlieder
!!!ONB: ESAC (Essen Associative Code) Database: BOEHME
!!!AMT: simple quadruple
!!!AIN: vox
!!!EED: Helmut Schaffrath
!!!EEV: 1.0
!!Mel. v. Fr. Silcher. 1825. (Volksl. für Männerst. 2. Heft, Nr.4)
!!@@COMMENT:"Text von Ludwig Uhland 1809, mit Silchers Melodie ʒu einem ſehr beliebten Volkslied
!!geworden. - Jntereſſant iſt's ʒu beachten, wie Volksſänger ohne alle Schulung und blos vom
!!Gefühl geleitet dieſes ſchöne Lied des kunſtgeübten Uhland änderten und wirklich verbeſſerten.[...]"
!!@@END:
!!!Text: L. Uhland
!!!URL-scan: https://archive.org/details/BoehmeVtLieder1895/page/n455/mode/2up
!!!ENC: Anna Maria Matuszewska
!!!EEV: 2024/12/07
*-	*-
